!!!OTL: 327. Grenadierlied. / (Beim Beginn des siebenjaehrigen Kriegs 1756.)
!!!ARE: Europa, Mitteleuropa, Deutschland
!!!SCT: E0327
!!!TXL: @@DE
!!!YEM: Copyright 1995, estate of Helmut Schaffrath.
**kern	**text
*ICvox	*
*M3/4	*
*k[]	*
*C:	*
!LO:TX:a:t=Friſch.	!
!LO:TX:a:t=Mel. 1845 aufgeſchrieben.	!
{12gL	Ma-
12a	.
12bJ	.
=1	=1
4.cc	-ri-
8g	-a
4g	The-
=2	=2
4.g	-re-
8e	-ſia,
4g	ʒeuch
=3	=3
4f	nicht
4e	in
4d	den
=4	=4
4c	Krieg!
4r}	.
{12gL	Du
12a	.
12bJ	.
=5	=5
4.cc	wirſt
8g	nicht
4g	er-
=6	=6
4.g	-fech-
8e	-ten
4g	den
=7	=7
4f	herr-
4e	-li-
4d	-chen
=8	=8
4c	Sieg.
4r}	.
{4e	Was
=9	=9
4d	hel-
4d	-fen
4d	dir
=10	=10
4.d	al-
8e	-le
4f	die
=11	=11
4.g	Rei-
8f	-ter
4e	und
=12	=12
4d	Hu-
4r	.
4r}	.
=13	=13
{4.cc^	-ſa-
8g	-ren
4g	und
=14	=14
4.g	al-
8e	-le
4g	Kro-
=15	=15
4f	-a-
4e	-ten
4d	da-
=16	=16
4c	-ʒu?
4r}	.
==	==
!!!AGN: historisches Lied, Siebenjaehriger Krieg (1756)
!!!ONB: ESAC (Essen Associative Code) Database: ERK1
!!!AMT: simple triple
!!!AIN: vox
!!!EED: Helmut Schaffrath
!!!EEV: 1.0
!!!GTL: Historische Lieder
!!!URL-scan: https://rosdok.uni-rostock.de/mcrviewer/recordIdentifier/rosdok_ppn745177662/iview2/phys_0143.iview2?x=-544.0401362767932&y=99.57009255536832&scale=0.4722427387526479&rotation=0&layout=singlePageLayout
!!!ENC: Anna Maria Matuszewska
!!!EEV: 2024/06/12
*-	*-
